src/images_karasa_jaga_svg/cmd/lc_fontworkshapetype.fontwork-curve-up.svg

<svg height="24" viewBox="0 0 24 24" width="24" xmlns="http://www.w3.org/2000/svg" xmlns:xlink="http://www.w3.org/1999/xlink"><linearGradient id="a" gradientUnits="userSpaceOnUse" x1="58.181" x2="58.181" y1="128" y2=".0018"><stop offset="0" stop-color="#fff"/><stop offset=".46428573" stop-color="#fff"/><stop offset=".78125" stop-color="#f1f1f1"/><stop offset=".90625" stop-color="#eaeaea"/><stop offset="1" stop-color="#dfdfdf"/></linearGradient><linearGradient id="b" gradientUnits="userSpaceOnUse" x1="58.181" x2="58.181" y1="128" y2=".0018"><stop offset="0" stop-color="#7c9fcf"/><stop offset=".5" stop-color="#7c9ece"/><stop offset="1" stop-color="#7b9dcf"/></linearGradient><g transform="matrix(.171875 0 0 .171875 1 1)"><path d="m122.00586 2.59375a5.790443 5.790443 0 0 0 -5.36133 4.0820312c-8.14024 26.4965868-24.243149 40.7766318-48.912108 43.1347658-26.242201 2.508522-44.723373-2.83738-57.373047-18.818359a5.790443 5.790443 0 0 0 -10.328125 3.59375v41.136718a5.790443 5.790443 0 0 0 .8515625 3.023438c23.3802075 38.177476 53.5213535 47.833446 77.8144535 46.554686 12.146549-.63938 22.839174-3.79038 30.917964-6.88672 4.0394-1.54817 7.43084-3.08977 9.98829-4.29687 2.55744-1.2071 4.75412-2.19326 4.44531-2.08789a5.790443 5.790443 0 0 0 3.91992-5.48047v-98.1718769a5.790443 5.790443 0 0 0 -5.96289-5.7832031z" fill="url(#b)"/><path d="m122.1801 8.3764597c-8.63458 28.1056603-27.127435 44.6395293-53.896543 47.1984193-27.343826 2.613828-48.446879-3.280137-62.463659-20.988253v41.136821c44.973467 73.437053 109.768832 33.073533 116.360202 30.824553z" fill="url(#a)"/></g></svg>

<?xml version="1.0" encoding="UTF-8" standalone="no"?>
<!-- Created with Inkscape (http://www.inkscape.org/) -->

<svg
   xmlns:dc="http://purl.org/dc/elements/1.1/"
   xmlns:cc="http://creativecommons.org/ns#"
   xmlns:rdf="http://www.w3.org/1999/02/22-rdf-syntax-ns#"
   xmlns:svg="http://www.w3.org/2000/svg"
   xmlns="http://www.w3.org/2000/svg"
   xmlns:xlink="http://www.w3.org/1999/xlink"
   xmlns:sodipodi="http://sodipodi.sourceforge.net/DTD/sodipodi-0.dtd"
   xmlns:inkscape="http://www.inkscape.org/namespaces/inkscape"
   version="1.1"
   id="svg2"
   width="128"
   height="128"
   viewBox="0 0 128 128"
   sodipodi:docname="lc_fontworkshapetype.fontwork-curve-up.svg"
   inkscape:export-filename="/home/rizmut/Dokumen/Rizmut/Github/libreoffice-style-karasa-jaga/build/images_karasa_jaga/cmd/lc_fontworkshapetype.fontwork-curve-up.png"
   inkscape:export-xdpi="16.5"
   inkscape:export-ydpi="16.5"
   inkscape:version="0.92.3 (unknown)">
  <metadata
     id="metadata8">
    <rdf:RDF>
      <cc:Work
         rdf:about="">
        <dc:format>image/svg+xml</dc:format>
        <dc:type
           rdf:resource="http://purl.org/dc/dcmitype/StillImage" />
        <dc:title></dc:title>
      </cc:Work>
    </rdf:RDF>
  </metadata>
  <defs
     id="defs6">
    <linearGradient
       id="linearGradient7422">
      <stop
         style="stop-color:#7c9fcf;stop-opacity:1"
         offset="0"
         id="stop7424" />
      <stop
         id="stop5348"
         offset="0.5"
         style="stop-color:#7c9ece;stop-opacity:1" />
      <stop
         id="stop7426"
         offset="1"
         style="stop-color:#7b9dcf;stop-opacity:1" />
    </linearGradient>
    <linearGradient
       id="linearGradient3369">
      <stop
         id="stop3372"
         offset="0"
         style="stop-color:#ffffff;stop-opacity:1;" />
      <stop
         style="stop-color:#ffffff;stop-opacity:1;"
         offset="0.46428573"
         id="stop3374" />
      <stop
         style="stop-color:#f1f1f1;stop-opacity:1;"
         offset="0.78125"
         id="stop3376" />
      <stop
         id="stop3378"
         offset="0.90625"
         style="stop-color:#eaeaea;stop-opacity:1;" />
      <stop
         id="stop3384"
         offset="1"
         style="stop-color:#dfdfdf;stop-opacity:1;" />
    </linearGradient>
    <linearGradient
       inkscape:collect="always"
       xlink:href="#linearGradient3369"
       id="linearGradient1352"
       x1="58.181"
       y1="128"
       x2="58.181"
       y2="0.0018"
       gradientUnits="userSpaceOnUse" />
    <linearGradient
       inkscape:collect="always"
       xlink:href="#linearGradient7422"
       id="linearGradient1356"
       gradientUnits="userSpaceOnUse"
       x1="58.181"
       y1="128"
       x2="58.181"
       y2="0.0018" />
  </defs>
  <sodipodi:namedview
     pagecolor="#ffffff"
     bordercolor="#666666"
     borderopacity="1"
     objecttolerance="10"
     gridtolerance="10"
     guidetolerance="10"
     inkscape:pageopacity="0"
     inkscape:pageshadow="2"
     inkscape:window-width="1366"
     inkscape:window-height="706"
     id="namedview4"
     showgrid="true"
     inkscape:snap-page="true"
     inkscape:snap-global="false"
     inkscape:zoom="9.7977152"
     inkscape:cx="104.81013"
     inkscape:cy="110.66235"
     inkscape:window-x="0"
     inkscape:window-y="0"
     inkscape:window-maximized="1"
     inkscape:current-layer="svg2">
    <inkscape:grid
       type="xygrid"
       id="grid812"
       spacingx="5.8181"
       spacingy="5.8181"
       empspacing="1" />
  </sodipodi:namedview>
  <g
     id="g1381">
    <path
       d="m 122.00586,2.59375 a 5.790443,5.790443 0 0 0 -5.36133,4.0820312 C 108.50429,33.172368 92.401381,47.452413 67.732422,49.810547 41.490221,52.319069 23.009049,46.973167 10.359375,30.992188 A 5.790443,5.790443 0 0 0 0.03125,34.585938 v 41.136718 a 5.790443,5.790443 0 0 0 0.8515625,3.023438 C 24.26302,116.92357 54.404166,126.57954 78.697266,125.30078 c 12.146549,-0.63938 22.839174,-3.79038 30.917964,-6.88672 4.0394,-1.54817 7.43084,-3.08977 9.98829,-4.29687 2.55744,-1.2071 4.75412,-2.19326 4.44531,-2.08789 a 5.790443,5.790443 0 0 0 3.91992,-5.48047 V 8.3769531 A 5.790443,5.790443 0 0 0 122.00586,2.59375 Z"
       id="path1354"
       style="opacity:1;fill:url(#linearGradient1356);fill-opacity:1;stroke:none;stroke-width:5.05406141;stroke-linecap:round;stroke-linejoin:round;stroke-miterlimit:4;stroke-dasharray:none;stroke-dashoffset:0;stroke-opacity:1"
       inkscape:original="M 122.17969 8.3769531 C 113.54511 36.482613 95.052311 53.015329 68.283203 55.574219 C 40.939377 58.188047 19.837093 52.294053 5.8203125 34.585938 L 5.8203125 75.722656 C 50.793779 149.15971 115.58832 108.79781 122.17969 106.54883 L 122.17969 8.3769531 z "
       inkscape:radius="5.7898641"
       sodipodi:type="inkscape:offset" />
    <path
       inkscape:connector-curvature="0"
       id="rect3937-5"
       d="M 122.1801,8.3764597 C 113.54552,36.48212 95.052665,53.015989 68.283557,55.574879 40.939731,58.188707 19.836678,52.294742 5.819898,34.586626 V 75.723447 C 50.793365,149.1605 115.58873,108.79698 122.1801,106.548 Z"
       style="opacity:1;fill:url(#linearGradient1352);fill-opacity:1;stroke:none;stroke-width:5.05406141;stroke-linecap:round;stroke-linejoin:round;stroke-miterlimit:4;stroke-dasharray:none;stroke-dashoffset:0;stroke-opacity:1" />
  </g>
</svg>
